
// shift+return -> executes a single line or whatever is highlighted
// cmd+return -> executes everything inside of the largest code block
(
"Hello World!".postln;
"Hey Er'Body".postln;
"I dont like cats....".postln;
)



/*
This is a block comment
*/